icons/slideshow-fill.svg

<svg viewBox="0 0 24 24" fill="currentColor" xmlns="http://www.w3.org/2000/svg"><path d="M13 21V23H11V21H3C2.44772 21 2 20.5523 2 20V6H22V20C22 20.5523 21.5523 21 21 21H13ZM8 10C6.34315 10 5 11.3431 5 13C5 14.6569 6.34315 16 8 16C9.65685 16 11 14.6569 11 13H8V10ZM13 10V12H19V10H13ZM13 14V16H19V14H13ZM2 3H22V5H2V3Z"/></svg>

<svg xmlns="http://www.w3.org/2000/svg" viewBox="0 0 24 24">
    <g>
        <path fill="none" d="M0 0h24v24H0z"/>
        <path d="M13 21v2h-2v-2H3a1 1 0 0 1-1-1V6h20v14a1 1 0 0 1-1 1h-8zM8 10a3 3 0 1 0 3 3H8v-3zm5 0v2h6v-2h-6zm0 4v2h6v-2h-6zM2 3h20v2H2V3z"/>
    </g>
</svg>
